packages/icons/src/git-clone-ci-step.svg

<svg viewBox="0 0 40 41" xmlns="http://www.w3.org/2000/svg"><path clip-rule="evenodd" d="m13.1687 5.04497c0-.73578.5991-1.32736 1.3321-1.32736h18.4171c.733 0 1.3321.59158 1.3321 1.32736v23.13943c0 .7358-.5991 1.3274-1.3321 1.3274h-3.9543v-1h3.9543c.1861 0 .3321-.1493.3321-.3274v-23.13943c0-.1781-.146-.32736-.3321-.32736h-18.4171c-.1861 0-.3321.14926-.3321.32736v3.28304h11.6825c.5523 0 1 .44771 1 1v23.51069c0 .5523-.4477 1-1 1h-5.1528v-1h5.1528v-5.4079h-16.37888c-1.50621 0-2.72232 1.2132-2.72232 2.7039 0 1.4906 1.21611 2.7038 2.72232 2.7038h.92988v1h-.92988c-2.05307 0-3.72232-1.6555-3.72232-3.7038 0-.1598.01016-.3172.02986-.4716h-.02986v-20.33509c0-.55229.44772-1 1-1h6.4187zm-6.4187 22.56363c.67989-.725 1.64861-1.1778 2.72232-1.1778h16.37888v-17.10279h-19.1012zm6.4187 4.2461c0-.5522.4477-1 1-1h3.4725c.5523 0 1 .4478 1 1v5.8629c0 .1817-.0986.3491-.2574.4372-.1589.0882-.3531.0832-.5073-.013l-1.994-1.2441-1.9448 1.2414c-.154.0982-.3492.1047-.5093.017-.1602-.0878-.2597-.2559-.2597-.4385zm4.4725 0h-3.4725v4.9506l1.7077-1.0901 1.7648 1.1011z" fill="#4f5162" fill-rule="evenodd"/></svg>

<svg viewBox="0 0 40 41" xmlns="http://www.w3.org/2000/svg">
<path fill-rule="evenodd" clip-rule="evenodd" d="M13.1687 5.04497C13.1687 4.30919 13.7678 3.71761 14.5008 3.71761H32.9179C33.6509 3.71761 34.25 4.30919 34.25 5.04497V28.1844C34.25 28.9202 33.6509 29.5118 32.9179 29.5118H28.9636V28.5118H32.9179C33.104 28.5118 33.25 28.3625 33.25 28.1844V5.04497C33.25 4.86687 33.104 4.71761 32.9179 4.71761H14.5008C14.3147 4.71761 14.1687 4.86687 14.1687 5.04497V8.32801H25.8512C26.4035 8.32801 26.8512 8.77572 26.8512 9.32801V32.8387C26.8512 33.391 26.4035 33.8387 25.8512 33.8387H20.6984V32.8387H25.8512V27.4308H9.47232C7.96611 27.4308 6.75 28.644 6.75 30.1347C6.75 31.6253 7.96611 32.8385 9.47232 32.8385H10.4022V33.8385H9.47232C7.41925 33.8385 5.75 32.183 5.75 30.1347C5.75 29.9749 5.76016 29.8175 5.77986 29.6631H5.75V9.32801C5.75 8.77572 6.19772 8.32801 6.75 8.32801H13.1687V5.04497ZM6.75 27.6086C7.42989 26.8836 8.39861 26.4308 9.47232 26.4308H25.8512V9.32801L6.75 9.32801V27.6086ZM13.1687 31.8547C13.1687 31.3025 13.6164 30.8547 14.1687 30.8547H17.6412C18.1935 30.8547 18.6412 31.3025 18.6412 31.8547V37.7176C18.6412 37.8993 18.5426 38.0667 18.3838 38.1548C18.2249 38.243 18.0307 38.238 17.8765 38.1418L15.8825 36.8977L13.9377 38.1391C13.7837 38.2373 13.5885 38.2438 13.4284 38.1561C13.2682 38.0683 13.1687 37.9002 13.1687 37.7176V31.8547ZM17.6412 31.8547H14.1687V36.8053L15.8764 35.7152L17.6412 36.8163V31.8547Z" fill="#4F5162"/>
</svg>
